public/shoppopup.svg

<svg width="654" height="395" viewBox="0 0 654 395" fill="none" xmlns="http://www.w3.org/2000/svg">
<path d="M65.8636 10.8705L9.36257 3.02055C8.82107 2.94531 8.31952 3.31889 8.23654 3.85926L6.51958 15.0411C6.4854 15.2638 6.52738 15.4914 6.63874 15.6872L13.9723 28.5825C14.0837 28.7784 14.1256 29.006 14.0915 29.2287L8.41905 66.1707C8.39737 66.3119 8.40618 66.456 8.44487 66.5935L18.8827 103.672C18.9222 103.812 18.9306 103.959 18.9072 104.103L8.39909 168.805C8.39048 168.858 8.38611 168.91 8.38629 168.963C8.40065 173.164 9.56648 182.102 14.1442 184.885C18.6433 187.62 16.185 191.849 14.2797 193.753C14.1906 193.842 14.1172 193.944 14.0645 194.058L8.53227 206.068C8.43766 206.273 8.41546 206.504 8.46927 206.724L14.1057 229.728C14.1312 229.832 14.1398 229.939 14.1312 230.046L8.40802 300.615C8.3937 300.792 8.42654 300.969 8.50317 301.129L13.9548 312.49C14.0756 312.742 14.0857 313.032 13.9826 313.292L8.51511 327.06C8.43162 327.27 8.42188 327.503 8.4875 327.719L14.0745 346.155C14.1203 346.306 14.1296 346.466 14.1016 346.622L8.46123 377.968C8.41325 378.234 8.47552 378.509 8.6338 378.729L13.9511 386.117C14.0765 386.291 14.2547 386.42 14.4593 386.485L31.2705 391.838C31.3686 391.869 31.4709 391.885 31.5739 391.885H60.2089L82.2816 388.885H115.87H141.7C141.755 388.885 141.809 388.889 141.862 388.898L159.864 391.86C159.965 391.876 160.067 391.878 160.168 391.863L198.292 386.401C198.366 386.39 198.441 386.388 198.515 386.394L229.113 388.885H264.621H326.919C326.973 388.885 327.027 388.889 327.081 388.898L345.089 391.861C345.185 391.877 345.284 391.878 345.38 391.866L368.147 388.901C368.226 388.89 368.307 388.889 368.387 388.898L395.138 391.885L594.676 388.886C594.726 388.885 594.776 388.888 594.826 388.895L616.654 391.862C616.766 391.877 616.881 391.873 616.992 391.85L631.118 388.906C631.185 388.892 631.254 388.885 631.322 388.885H641.326C641.612 388.885 641.884 388.762 642.074 388.548L647.062 382.917C647.345 382.599 647.394 382.136 647.185 381.765L636.242 362.283C636.099 362.03 636.074 361.728 636.172 361.455L647.398 330.262C647.485 330.02 647.477 329.755 647.372 329.52C645.376 325.041 641.137 315.998 638.897 312.885C636.668 309.788 641.449 303.945 644.369 301.154C644.552 300.979 644.665 300.745 644.684 300.493L647.513 262.663C647.527 262.481 647.49 262.299 647.407 262.136L638.99 245.568C638.928 245.447 638.892 245.315 638.884 245.179L636.045 200.808C636.027 200.538 636.121 200.272 636.303 200.071L644.395 191.171C644.562 190.987 644.655 190.747 644.655 190.498V156.596C644.655 156.457 644.626 156.32 644.57 156.192C643.586 153.954 641.776 149.55 641.776 148.385C641.776 147.293 644.952 143.913 646.971 141.931C647.299 141.608 647.372 141.104 647.142 140.705L639.059 126.666C638.953 126.483 638.909 126.272 638.931 126.062L647.516 45.0561C647.528 44.9428 647.52 44.8283 647.494 44.7174L641.869 21.2721C641.809 21.0235 641.847 20.7614 641.974 20.5398L646.735 12.273C647.104 11.6322 646.674 10.8264 645.936 10.7763L625.541 9.39031C625.488 9.3867 625.435 9.37885 625.383 9.36684L617.113 7.45187C616.925 7.40816 616.727 7.42023 616.545 7.48662L607.53 10.7745C607.333 10.8463 607.119 10.8545 606.917 10.7979L594.923 7.43313C594.81 7.40122 594.691 7.38972 594.573 7.39916L569.8 9.38489H526.614H510.299L484.388 10.8849L431.606 9.38489C418.81 8.71822 391.875 7.38489 386.501 7.38489C381.134 7.38489 344.698 9.7116 327.075 10.8799C327.024 10.8833 326.974 10.8826 326.923 10.878L287.653 7.38489L220.554 10.8808C220.502 10.8835 220.45 10.8822 220.398 10.8768L186.976 7.39414C186.917 7.38798 186.857 7.38711 186.798 7.39152L160.016 9.38489L115.87 7.38489L66.0712 10.8776C66.0019 10.8824 65.9324 10.8801 65.8636 10.8705Z" fill="#48BBFE" fill-opacity="0.41"/>
<path d="M581.85 8.52449L638.079 0.162004C638.618 0.0818416 639.132 0.450697 639.233 0.990076L641.324 12.1552C641.366 12.3773 641.331 12.6051 641.227 12.8017L634.326 25.7622C634.221 25.9589 634.187 26.1867 634.229 26.4088L641.138 63.2941C641.164 63.4349 641.16 63.579 641.126 63.7167L631.932 100.885C631.897 101.025 631.894 101.172 631.922 101.316L644.596 165.913C644.606 165.966 644.612 166.017 644.614 166.071C644.74 170.271 643.874 179.218 639.39 182.042C634.983 184.817 637.583 189.023 639.552 190.91C639.644 190.998 639.72 191.099 639.777 191.213L645.711 203.171C645.812 203.375 645.842 203.606 645.796 203.826L640.931 226.878C640.909 226.982 640.904 227.09 640.916 227.196L649.002 297.703C649.022 297.879 648.995 298.057 648.924 298.217L643.854 309.627C643.741 309.879 643.741 310.169 643.853 310.428L649.781 324.145C649.871 324.354 649.889 324.586 649.831 324.803L644.862 343.287C644.821 343.438 644.817 343.598 644.85 343.754L651.54 375.044C651.597 375.31 651.544 375.585 651.393 375.806L646.324 383.241C646.204 383.417 646.03 383.548 645.828 383.615L629.199 389.119C629.102 389.151 629 389.168 628.897 389.169L600.266 389.429L578.096 386.631L544.513 386.936L518.687 387.171C518.633 387.171 518.578 387.176 518.525 387.186L500.626 390.311C500.526 390.328 500.423 390.33 500.321 390.317L462.021 385.202C461.946 385.192 461.872 385.19 461.797 385.197L431.288 387.966L395.785 388.289L333.497 388.855C333.442 388.856 333.388 388.86 333.335 388.87L315.429 391.996C315.333 392.013 315.235 392.015 315.138 392.003L292.276 389.246C292.195 389.236 292.115 389.236 292.035 389.246L265.388 392.475L65.7799 391.291C65.7299 391.291 65.6799 391.294 65.6305 391.301L43.9055 394.466C43.7933 394.482 43.6785 394.479 43.5663 394.457L29.344 391.642C29.2764 391.629 29.2078 391.622 29.1392 391.623L19.1377 391.714C18.8514 391.716 18.5747 391.596 18.3777 391.384L13.2017 385.799C12.9088 385.483 12.8439 385.021 13.0399 384.648L23.33 365.07C23.4635 364.816 23.4786 364.513 23.3713 364.242L11.1021 333.155C11.007 332.914 11.0068 332.649 11.1036 332.414C12.949 327.917 16.8842 318.836 19.0203 315.703C21.145 312.587 16.1691 306.788 13.1559 304.024C12.9675 303.851 12.8459 303.618 12.8187 303.366L8.72297 265.568C8.70326 265.386 8.73365 265.203 8.8109 265.04L16.6721 248.398C16.7295 248.276 16.7613 248.144 16.7654 248.008L18.1175 203.617C18.1257 203.347 18.0238 203.082 17.835 202.884L9.44582 194.058C9.27243 193.875 9.17175 193.637 9.16342 193.388L8.02778 159.491C8.02311 159.352 8.0475 159.214 8.09932 159.086C9.00761 156.84 10.6704 152.42 10.6313 151.255C10.5948 150.163 7.3053 146.811 5.22056 144.848C4.88122 144.529 4.79173 144.026 5.00809 143.625L12.6205 129.514C12.7196 129.331 12.7572 129.119 12.728 128.909L1.43098 47.9936C1.41517 47.8805 1.41878 47.766 1.44162 47.6551L6.28052 24.1617C6.33183 23.9127 6.28522 23.6513 6.15031 23.431L1.11336 15.2077C0.723141 14.5707 1.1262 13.7616 1.8621 13.7048L22.2076 12.1336C22.2606 12.1295 22.3132 12.1211 22.3646 12.1086L30.569 10.1188C30.7563 10.0734 30.9542 10.0837 31.1386 10.1484L40.2623 13.3537C40.4615 13.4237 40.6762 13.43 40.876 13.3715L52.755 9.89831C52.8677 9.86535 52.9859 9.85276 53.104 9.86114L77.9403 11.6213L121.119 11.2286L137.431 11.0803L163.389 12.3444L216.113 10.3647C228.885 9.5818 255.771 8.00376 261.145 7.95489C266.51 7.90609 303.018 9.90114 320.678 10.909C320.729 10.912 320.779 10.9108 320.83 10.9057L359.977 7.05609L427.183 9.94137C427.235 9.9436 427.287 9.94178 427.339 9.93592L460.639 6.14991C460.698 6.14321 460.758 6.14179 460.817 6.14566L487.662 7.8952L531.733 5.4941L581.642 8.53345C581.712 8.53767 581.781 8.53467 581.85 8.52449Z" fill="url(#paint0_linear_664_1345)" fill-opacity="0.41"/>
<path d="M80.6582 386.07L25.9074 394.251C25.3679 394.332 24.8531 393.963 24.7524 393.423L22.7181 382.517C22.6769 382.296 22.7109 382.069 22.8147 381.873L29.5301 369.193C29.6339 368.997 29.6679 368.77 29.6266 368.549L22.8909 332.44C22.8648 332.3 22.8687 332.156 22.9024 332.019L31.8522 295.632C31.8866 295.492 31.89 295.345 31.8621 295.203L19.5047 231.954C19.4944 231.901 19.4883 231.85 19.4867 231.797C19.3631 227.684 20.2058 218.923 24.5734 216.159C28.864 213.443 26.3355 209.327 24.4175 207.479C24.3259 207.39 24.2494 207.289 24.1932 207.175L18.4144 195.475C18.3139 195.271 18.2842 195.041 18.3301 194.822L23.0645 172.259C23.0863 172.155 23.0912 172.048 23.079 171.941L15.1901 102.908C15.1701 102.733 15.1967 102.556 15.2673 102.397L20.2006 91.2352C20.3118 90.9836 20.3121 90.6946 20.2014 90.4374L14.4287 77.0174C14.3391 76.8089 14.3217 76.578 14.3794 76.3621L19.2147 58.2722C19.2551 58.1212 19.2589 57.962 19.2261 57.8075L12.6396 26.8678C12.6249 26.7988 12.6175 26.7287 12.6175 26.6585L12.6175 16.4826C12.6175 15.8649 13.1731 15.4087 13.7831 15.5255L22.5258 17.1994C22.6935 17.2315 22.8655 17.2206 23.0256 17.1677L34.4645 13.3911C34.5614 13.3591 34.663 13.3424 34.7657 13.3414L62.6557 13.0878L84.2552 15.8294L116.974 15.5319L142.133 15.3031C142.187 15.3026 142.242 15.2976 142.296 15.2882L159.727 12.2303C159.827 12.2126 159.93 12.2106 160.032 12.2243L197.34 17.2333C197.414 17.2433 197.49 17.2449 197.564 17.2381L227.285 14.5287L261.874 14.2141L322.556 13.6623C322.61 13.6618 322.665 13.6568 322.718 13.6474L340.156 10.5883C340.252 10.5714 340.351 10.5689 340.449 10.5807L362.714 13.2812C362.795 13.291 362.876 13.291 362.956 13.2813L388.913 10.1207L583.381 11.2891C583.431 11.2894 583.481 11.2859 583.531 11.2787L604.689 8.18186C604.801 8.16534 604.917 8.16835 605.03 8.19078L618.878 10.9462C618.946 10.9597 619.015 10.9662 619.084 10.9656L628.811 10.8771C629.099 10.8745 629.376 10.9954 629.573 11.2091L634.6 16.6594C634.891 16.9748 634.955 17.4345 634.761 17.8063L624.748 36.9598C624.616 37.213 624.601 37.5137 624.707 37.7846L636.661 68.212C636.755 68.4521 636.755 68.7154 636.659 68.9502C634.861 73.355 631.031 82.24 628.952 85.3062C626.883 88.3557 631.724 94.029 634.661 96.7376C634.848 96.9104 634.969 97.1431 634.996 97.3939L638.992 134.395C639.011 134.576 638.981 134.758 638.904 134.921L631.252 151.208C631.195 151.33 631.163 151.462 631.159 151.597L629.85 195.054C629.842 195.323 629.943 195.587 630.131 195.785L638.294 204.416C638.467 204.598 638.567 204.836 638.575 205.084L639.687 238.266C639.691 238.405 639.667 238.542 639.616 238.669C638.731 240.87 637.114 245.194 637.152 246.334C637.187 247.401 640.381 250.673 642.413 252.597C642.751 252.917 642.84 253.417 642.625 253.817L635.22 267.617C635.122 267.8 635.084 268.011 635.113 268.22L646.132 347.445C646.148 347.557 646.144 347.671 646.121 347.782L641.413 370.777C641.362 371.025 641.408 371.285 641.542 371.505L646.431 379.525C646.819 380.162 646.416 380.969 645.681 381.026L625.899 382.56C625.846 382.564 625.793 382.573 625.741 382.585L617.759 384.531C617.571 384.577 617.372 384.566 617.187 384.501L608.316 381.368C608.116 381.297 607.9 381.291 607.699 381.35L596.141 384.746C596.028 384.78 595.909 384.792 595.79 384.784L571.599 383.06L529.531 383.442L513.639 383.587L488.349 382.348L436.982 384.284C424.54 385.05 398.346 386.594 393.111 386.641C387.884 386.689 352.318 384.734 335.112 383.746C335.06 383.743 335.01 383.744 334.959 383.75L296.893 387.51C296.847 387.515 296.799 387.516 296.752 387.514L231.348 384.689C231.296 384.687 231.244 384.689 231.192 384.694L198.755 388.4C198.695 388.406 198.636 388.408 198.576 388.404L172.425 386.69L129.488 389.039L80.8667 386.061C80.7969 386.056 80.727 386.06 80.6582 386.07Z" fill="url(#paint1_linear_664_1345)" fill-opacity="0.41"/>
<defs>
<linearGradient id="paint0_linear_664_1345" x1="320.485" y1="2.91455" x2="324.023" y2="391.942" gradientUnits="userSpaceOnUse">
<stop stop-color="#48BBFE"/>
<stop offset="1" stop-color="#2B7098"/>
</linearGradient>
<linearGradient id="paint1_linear_664_1345" x1="322.539" y1="10.7244" x2="326.004" y2="391.659" gradientUnits="userSpaceOnUse">
<stop stop-color="#48FEDD"/>
<stop offset="1" stop-color="#2B9884"/>
</linearGradient>
</defs>
</svg>

<svg xmlns="http://www.w3.org/2000/svg" width="654" height="395" fill="none"><path fill="#48BBFE" fill-opacity=".41" d="M65.864 10.87 9.363 3.02a1 1 0 0 0-1.126.84L6.52 15.04a1 1 0 0 0 .119.646l7.333 12.896a1 1 0 0 1 .12.646L8.419 66.17a1 1 0 0 0 .026.422l10.438 37.079c.04.14.048.287.024.431L8.4 168.805a1 1 0 0 0-.013.158c.015 4.201 1.18 13.139 5.758 15.922 4.5 2.735 2.041 6.964.136 8.868a1.1 1.1 0 0 0-.215.305l-5.533 12.01a1 1 0 0 0-.063.656l5.637 23.004a1 1 0 0 1 .025.318l-5.723 70.569c-.014.177.019.354.095.514l5.452 11.361a1 1 0 0 1 .028.802L8.515 327.06a1 1 0 0 0-.027.659l5.587 18.436a1 1 0 0 1 .027.467l-5.64 31.346a1 1 0 0 0 .172.761l5.317 7.388a1 1 0 0 0 .508.368l16.812 5.353q.148.047.303.047h28.635l22.073-3H141.7q.083 0 .162.013l18.002 2.962a1 1 0 0 0 .304.003l38.124-5.462a1 1 0 0 1 .223-.007l30.598 2.491h97.806q.081 0 .162.013l18.008 2.963q.146.024.291.005l22.767-2.965a1 1 0 0 1 .24-.003l26.751 2.987 199.538-2.999q.075-.001.15.009l21.828 2.967q.17.022.338-.012l14.126-2.944q.101-.021.204-.021h10.004a1 1 0 0 0 .748-.337l4.988-5.631a1 1 0 0 0 .123-1.152l-10.943-19.482a1 1 0 0 1-.07-.828l11.226-31.193a1 1 0 0 0-.026-.742c-1.996-4.479-6.235-13.522-8.475-16.635-2.229-3.097 2.552-8.94 5.472-11.731a1.02 1.02 0 0 0 .315-.661l2.829-37.83a1 1 0 0 0-.106-.527l-8.417-16.568a1 1 0 0 1-.106-.389l-2.839-44.371a1 1 0 0 1 .258-.737l8.092-8.9c.167-.184.26-.424.26-.673v-33.902q0-.21-.085-.404c-.984-2.238-2.794-6.642-2.794-7.807 0-1.092 3.176-4.472 5.195-6.454.328-.323.401-.827.171-1.226l-8.083-14.039a1 1 0 0 1-.128-.604l8.585-81.006a1 1 0 0 0-.022-.339l-5.625-23.445c-.06-.248-.022-.51.105-.732l4.761-8.267a1 1 0 0 0-.799-1.497L625.541 9.39a1 1 0 0 1-.158-.023l-8.27-1.915a1 1 0 0 0-.568.035l-9.015 3.287a1 1 0 0 1-.613.024l-11.994-3.365a1 1 0 0 0-.35-.034L569.8 9.385h-59.501l-25.911 1.5-52.782-1.5c-12.796-.667-39.731-2-45.105-2-5.367 0-41.803 2.327-59.426 3.495a1 1 0 0 1-.152-.002l-39.27-3.493-67.099 3.496a1 1 0 0 1-.156-.004l-33.422-3.483a1 1 0 0 0-.178-.002l-26.782 1.993-44.146-2-49.799 3.493a1 1 0 0 1-.207-.008"/><path fill="url(#a)" fill-opacity=".41" d="M581.85 8.524 638.079.162a1.03 1.03 0 0 1 1.154.828l2.091 11.165a1 1 0 0 1-.097.647l-6.901 12.96a.98.98 0 0 0-.097.647l6.909 36.885c.026.14.022.285-.012.423l-9.194 37.168a1 1 0 0 0-.01.431l12.674 64.597q.015.078.018.158c.126 4.2-.74 13.147-5.224 15.971-4.407 2.775-1.807 6.981.162 8.868q.139.132.225.303l5.934 11.958c.101.204.131.435.085.655l-4.865 23.052a1 1 0 0 0-.015.318l8.086 70.507a1 1 0 0 1-.078.514l-5.07 11.41a1 1 0 0 0-.001.801l5.928 13.717c.09.209.108.441.05.658l-4.969 18.484a1 1 0 0 0-.012.467l6.69 31.29a.98.98 0 0 1-.147.762l-5.069 7.435a.97.97 0 0 1-.496.374l-16.629 5.504a1 1 0 0 1-.302.05l-28.631.26-22.17-2.798-33.583.305-25.826.235a1 1 0 0 0-.162.015l-17.899 3.125q-.151.026-.305.006l-38.3-5.115a1 1 0 0 0-.224-.005l-30.509 2.769-35.503.323-62.288.566a1 1 0 0 0-.162.015l-17.906 3.126a1 1 0 0 1-.291.007l-22.862-2.757a1 1 0 0 0-.241 0l-26.647 3.229-199.608-1.184q-.075 0-.15.01l-21.724 3.165a1 1 0 0 1-.34-.009l-14.222-2.815a1 1 0 0 0-.205-.019l-10.001.091a1.03 1.03 0 0 1-.76-.33l-5.176-5.585a1.01 1.01 0 0 1-.162-1.151l10.29-19.578a1 1 0 0 0 .041-.828l-12.269-31.087a1 1 0 0 1 .002-.741c1.845-4.497 5.78-13.578 7.916-16.711 2.125-3.116-2.85-8.915-5.864-11.679a1.05 1.05 0 0 1-.337-.658l-4.096-37.798a1 1 0 0 1 .088-.528l7.861-16.642a1 1 0 0 0 .093-.39l1.352-44.391a1.02 1.02 0 0 0-.282-.733l-8.39-8.826a1.02 1.02 0 0 1-.282-.67l-1.135-33.897a1 1 0 0 1 .071-.405c.909-2.246 2.571-6.666 2.532-7.831-.036-1.092-3.326-4.444-5.41-6.407a1.02 1.02 0 0 1-.213-1.223l7.613-14.111a1 1 0 0 0 .107-.605L1.431 47.994a1 1 0 0 1 .01-.339l4.84-23.493a1 1 0 0 0-.13-.731l-5.038-8.223c-.39-.637.013-1.446.75-1.503l20.345-1.571a1 1 0 0 0 .157-.025l8.204-1.99c.187-.046.385-.035.57.03l9.123 3.205c.2.07.414.076.614.018l11.879-3.474a1 1 0 0 1 .349-.037l24.836 1.76 43.179-.392 16.312-.149 25.958 1.264 52.724-1.98c12.772-.782 39.658-2.36 45.032-2.41 5.365-.048 41.873 1.947 59.533 2.955a1 1 0 0 0 .152-.003l39.147-3.85 67.206 2.885q.078.004.156-.005l33.3-3.786q.089-.01.178-.004l26.845 1.75 44.071-2.402 49.909 3.04q.105.005.208-.01"/><path fill="url(#b)" fill-opacity=".41" d="m80.658 386.07-54.75 8.181a1.03 1.03 0 0 1-1.156-.828l-2.034-10.906a1 1 0 0 1 .097-.644l6.715-12.68a1 1 0 0 0 .097-.644L22.89 332.44a1 1 0 0 1 .011-.421l8.95-36.387a1 1 0 0 0 .01-.429l-12.357-63.249a1 1 0 0 1-.018-.157c-.124-4.113.719-12.874 5.086-15.638 4.291-2.716 1.762-6.832-.155-8.68a1.1 1.1 0 0 1-.225-.304l-5.779-11.7a1 1 0 0 1-.084-.653l4.735-22.563a1 1 0 0 0 .014-.318l-7.889-69.033a1 1 0 0 1 .077-.511l4.934-11.162a1 1 0 0 0 0-.798l-5.772-13.42a1 1 0 0 1-.05-.655l4.836-18.09a1 1 0 0 0 .011-.465l-6.586-30.94a1 1 0 0 1-.023-.209V16.484a.973.973 0 0 1 1.166-.958l8.743 1.674c.168.032.34.022.5-.031l11.439-3.777a1 1 0 0 1 .3-.05l27.89-.253 21.6 2.741 32.719-.297 25.159-.229q.082 0 .163-.015l17.431-3.058q.151-.026.305-.006l37.308 5.01a1 1 0 0 0 .224.004l29.721-2.71 34.589-.314 60.682-.552a1 1 0 0 0 .162-.015l17.438-3.059q.145-.026.293-.007l22.265 2.7q.122.015.242 0l25.957-3.16 194.468 1.168q.075 0 .15-.01l21.158-3.097q.17-.025.341.009l13.848 2.755q.102.02.206.02l9.727-.089c.288-.003.565.118.762.332l5.027 5.45c.291.316.355.776.161 1.147L624.748 36.96a1 1 0 0 0-.041.825l11.954 30.427a1 1 0 0 1-.002.738c-1.798 4.405-5.628 13.29-7.707 16.356-2.069 3.05 2.772 8.723 5.709 11.432.187.172.308.405.335.656l3.996 37.001a1 1 0 0 1-.088.526l-7.652 16.287a1 1 0 0 0-.093.389l-1.309 43.457a1.02 1.02 0 0 0 .281.731l8.163 8.631c.173.182.273.42.281.668l1.112 33.182q.006.21-.071.403c-.885 2.201-2.502 6.525-2.464 7.665.035 1.067 3.229 4.339 5.261 6.263.338.32.427.82.212 1.22l-7.405 13.8a1 1 0 0 0-.107.603l11.019 79.225a1 1 0 0 1-.011.337l-4.708 22.995a1 1 0 0 0 .129.728l4.889 8.02c.388.637-.015 1.444-.75 1.501l-19.782 1.534a1 1 0 0 0-.158.025l-7.982 1.946a1 1 0 0 1-.572-.03l-8.871-3.133a1 1 0 0 0-.617-.018l-11.558 3.396a1 1 0 0 1-.351.038l-24.191-1.724-42.068.382-15.892.145-25.29-1.239-51.367 1.936c-12.442.766-38.636 2.31-43.871 2.357-5.227.048-40.793-1.907-57.999-2.895a1 1 0 0 0-.153.004l-38.066 3.76a1 1 0 0 1-.141.004l-65.404-2.825q-.078-.003-.156.005l-32.437 3.706a1 1 0 0 1-.179.004l-26.151-1.714-42.937 2.349-48.621-2.978a1 1 0 0 0-.209.009"/><defs><linearGradient id="a" x1="320.485" x2="324.023" y1="2.915" y2="391.942" gradientUnits="userSpaceOnUse"><stop stop-color="#48BBFE"/><stop offset="1" stop-color="#2B7098"/></linearGradient><linearGradient id="b" x1="322.539" x2="326.004" y1="10.724" y2="391.659" gradientUnits="userSpaceOnUse"><stop stop-color="#48FEDD"/><stop offset="1" stop-color="#2B9884"/></linearGradient></defs></svg>
